X: 32
T: Dancing Song (d)
C: Teton Sioux band 1911-1914
N: Derived from sioux032.krn
O: South Dakota, U.S.A.
N: Teton Sioux Music by Frances Densmore, 1918
Z: transcribed to **kern format by Craig Sapp
L: 1/8
M: 2/4
Q: 1/4=58
K: E clef=bass
%%linebreak <none>
G4 [I:setbarnb 2]| 
E2B,2 | 
G4 | 
G FE2 | 
G4 | 
E2B,2 ]|:  
B,4 | 
G, F,E,2 | 
B,4 | 
C B,A,2 | 
B,4 | 
G, F,E,2 | 
F,4 | 
G, F,E,2 | 
F, E,E,2 | 
E, B,,B,,2 | 
E,4 | 
E, B,,B,,2 | 
B,,4 | 
B,,4 :|]  



